src/assets/tokens/G-Uni_agEUR_USDC.svg

<svg viewBox="0 0 400 400" xmlns="http://www.w3.org/2000/svg" xmlns:xlink="http://www.w3.org/1999/xlink"><linearGradient id="a" gradientUnits="userSpaceOnUse" x1="200" x2="200" y1="400"><stop offset="0" stop-color="#ff7284"/><stop offset="1" stop-color="#ffd1a8"/></linearGradient><linearGradient id="b" gradientTransform="matrix(0 1 -1 0 1628.54 -2403.07)" x1="2603.07" x2="2603.07" xlink:href="#a" y1="1600.9" y2="1256.18"/><radialGradient id="c" cx="-2925.72" cy="6056.58" gradientTransform="matrix(-144.9 32.65 39.12 173.61 -660647.73 -955859.45)" gradientUnits="userSpaceOnUse" r="1.99"><stop offset="0"/><stop offset=".12" stop-color="#1c0008"/><stop offset="1" stop-opacity="0"/></radialGradient><linearGradient id="d" gradientTransform="matrix(1 0 0 -1 0 11395.49)" gradientUnits="userSpaceOnUse" x1="204.68" x2="204.68" y1="11225.1" y2="11058.27"><stop offset="0" stop-color="#1b0008"/><stop offset="1" stop-color="#1b0008" stop-opacity=".5"/></linearGradient><linearGradient id="e" gradientTransform="matrix(1 0 0 -1 0 11395.49)" gradientUnits="userSpaceOnUse" x1="244.36" x2="244.36" y1="11229.17" y2="10987.03"><stop offset="0" stop-color="#150006"/><stop offset="1" stop-color="#1b0008" stop-opacity="0"/></linearGradient><linearGradient id="f" gradientTransform="matrix(.70710678 .70710678 -.70710678 .70710678 489.9 -1957.26)" x1="1147.06" x2="1493.79" xlink:href="#a" y1="1730.41" y2="1730.41"/><circle cx="200" cy="200" fill="url(#a)" r="200"/><circle cx="200" cy="200" fill="url(#b)" opacity=".5" r="172.36"/><path d="m277.71 148.2a6.25 6.25 0 0 1 -7.12 6 120 120 0 0 0 -25.34-.07c-17 1.77-31.2 7-44.25 11.87l-2.36.87c-13.86 5.12-26.64 9.53-41.79 9.88a89 89 0 0 1 -19.73-1.81 15.53 15.53 0 0 1 -12.29-12.08 78.05 78.05 0 0 1 -1.47-15.08 77.19 77.19 0 1 1 154.38 0z" fill="url(#c)"/><path d="m130.2 186.56c-5.8-1.39-11.09 4.83-8.23 10.07l75.77 138.91a3.21 3.21 0 0 0 5.64 0l83.62-153.32a9.11 9.11 0 0 0 -6-13.46 113.73 113.73 0 0 0 -34.5-1.89c-15.37 1.61-28.14 6.34-41.4 11.25l-2.11.78c-13.88 5.13-28.44 10.27-45.95 10.67a104 104 0 0 1 -26.84-3.01z" fill="url(#d)" opacity=".7"/><path d="m200.52 182.51a3.86 3.86 0 0 1 2.48-3.61l2.11-.78c13.26-4.91 26-9.64 41.4-11.25a113.73 113.73 0 0 1 34.5 1.89 9.11 9.11 0 0 1 6 13.46l-83.63 153.32a3.16 3.16 0 0 1 -2.86 1.67z" fill="url(#e)"/><path d="m200 373.28a172.87 172.87 0 0 1 -122.59-50.69c-67.59-67.59-67.59-177.59 0-245.18a173.37 173.37 0 1 1 122.59 295.87zm-121.17-52.11c66.81 66.82 175.53 66.82 242.34 0a171.36 171.36 0 0 0 -242.34-242.34c-66.83 66.81-66.83 175.53 0 242.34z" fill="url(#f)"/></svg>

<svg xmlns="http://www.w3.org/2000/svg" xmlns:xlink="http://www.w3.org/1999/xlink" viewBox="0 0 400 400"><defs><style>.cls-1{fill:url(#linear-gradient);}.cls-2{opacity:0.5;fill:url(#linear-gradient-2);}.cls-3{fill:url(#radial-gradient);}.cls-4{opacity:0.7;isolation:isolate;fill:url(#linear-gradient-3);}.cls-5{fill:url(#linear-gradient-4);}.cls-6{fill:url(#linear-gradient-5);}</style><linearGradient id="linear-gradient" x1="200" y1="400" x2="200" gradientUnits="userSpaceOnUse"><stop offset="0" stop-color="#ff7284"/><stop offset="1" stop-color="#ffd1a8"/></linearGradient><linearGradient id="linear-gradient-2" x1="2603.07" y1="1600.9" x2="2603.07" y2="1256.18" gradientTransform="translate(1628.54 -2403.07) rotate(90)" xlink:href="#linear-gradient"/><radialGradient id="radial-gradient" cx="-2925.72" cy="6056.58" r="1.99" gradientTransform="matrix(-144.9, 32.65, 39.12, 173.61, -660647.73, -955859.45)" gradientUnits="userSpaceOnUse"><stop offset="0"/><stop offset="0.12" stop-color="#1c0008"/><stop offset="1" stop-opacity="0"/></radialGradient><linearGradient id="linear-gradient-3" x1="204.68" y1="11225.1" x2="204.68" y2="11058.27" gradientTransform="matrix(1, 0, 0, -1, 0, 11395.49)" gradientUnits="userSpaceOnUse"><stop offset="0" stop-color="#1b0008"/><stop offset="1" stop-color="#1b0008" stop-opacity="0.5"/></linearGradient><linearGradient id="linear-gradient-4" x1="244.36" y1="11229.17" x2="244.36" y2="10987.03" gradientTransform="matrix(1, 0, 0, -1, 0, 11395.49)" gradientUnits="userSpaceOnUse"><stop offset="0" stop-color="#150006"/><stop offset="1" stop-color="#1b0008" stop-opacity="0"/></linearGradient><linearGradient id="linear-gradient-5" x1="1147.06" y1="1730.41" x2="1493.79" y2="1730.41" gradientTransform="translate(489.9 -1957.26) rotate(45)" xlink:href="#linear-gradient"/></defs><title>GEL Token Logo</title><g id="Layer_2" data-name="Layer 2"><g id="Layer_1-2" data-name="Layer 1"><circle class="cls-1" cx="200" cy="200" r="200"/><circle class="cls-2" cx="200" cy="200" r="172.36"/><path class="cls-3" d="M277.71,148.2a6.25,6.25,0,0,1-7.12,6,120,120,0,0,0-25.34-.07c-17,1.77-31.2,7-44.25,11.87h0l-2.36.87c-13.86,5.12-26.64,9.53-41.79,9.88a89,89,0,0,1-19.73-1.81,15.53,15.53,0,0,1-12.29-12.08,78.05,78.05,0,0,1-1.47-15.08,77.19,77.19,0,1,1,154.38,0Z"/><path class="cls-4" d="M130.2,186.56c-5.8-1.39-11.09,4.83-8.23,10.07l75.77,138.91a3.21,3.21,0,0,0,5.64,0L287,182.22a9.11,9.11,0,0,0-6-13.46,113.73,113.73,0,0,0-34.5-1.89c-15.37,1.61-28.14,6.34-41.4,11.25l-2.11.78c-13.88,5.13-28.44,10.27-45.95,10.67A104,104,0,0,1,130.2,186.56Z"/><path class="cls-5" d="M200.52,182.51A3.86,3.86,0,0,1,203,178.9l2.11-.78c13.26-4.91,26-9.64,41.4-11.25a113.73,113.73,0,0,1,34.5,1.89,9.11,9.11,0,0,1,6,13.46L203.38,335.54a3.16,3.16,0,0,1-2.86,1.67Z"/><path class="cls-6" d="M200,373.28A172.87,172.87,0,0,1,77.41,322.59C9.82,255,9.82,145,77.41,77.41A173.37,173.37,0,1,1,200,373.28ZM78.83,321.17c66.81,66.82,175.53,66.82,242.34,0A171.36,171.36,0,0,0,78.83,78.83C12,145.64,12,254.36,78.83,321.17Z"/></g></g></svg>
